X:1
T:Title
%%score { ( 1 4 ) | ( 2 3 ) }
L:1/8
Q:1/4=100
M:4/4
K:Bb
V:1 treble nm="Grand Piano"
V:4 treble 
V:2 bass 
V:3 bass 
V:1
 [DF]2 [Dd]2 [Ec][GB][FA][EG] | [EG]3 [DF] [DF]2 [DFB]2 | [CFA]2 [B,FB]2 [Fc]2 [Fd]2 | [Fc]6 z2 | %4
w: A.~J.~Abbey * * * * *||||
 [Fd]3 [Fd] [Ge][Fd][Fc][FB] | c2 B2 A2 G2 | F2 d2 c2 d2 | [DB]6 z2 | c3 =B c2 F2 | %9
w: |||||
 G2 F2 [DF]2 [DB]2 | [DB]3 [DB] [=EB][Ed][Ec][EB] | A3 B c2 z2 | [Fd]3 [Fd] [Ge]2 [Fd]2 | %13
w: ||||
 z4 .c2 z2 | F3 F Fdcd | B6 z2 |] %16
w: |||
V:2
 [B,,F,]2 [B,,F,]2 [E,G,][E,G,][E,A,][E,B,] | [B,,B,]3 [B,,B,] [B,,B,]2 B,,2 | %2
 F,E, D,2 [C,A,]2 [B,,B,]2 | [F,A,]6 z2 | [B,,B,]3 [B,,B,] [B,,B,][B,,B,][C,A,][D,B,] | %5
 [E,A,E]2 [E,G,E]2 [E,B,E]2 [E,B,E]2 | [F,B,D]2 [F,B,F]2 [F,A,E]2 [F,A,F]2 | [B,,B,]6 z2 | %8
 [F,A,E]3 [F,_A,D] [F,=A,E]2 [F,A,E]2 | [F,A,E]2 [F,A,E]2 [B,,B,]2 [B,,B,]2 | %10
 [G,B,]3 [G,B,] [C,C][C,B,][C,A,][C,G,] | F4 z4 | [B,,B,]3 [B,,B,] [B,,B,]2 [B,,B,]2 | %13
 [D,A,]2 [D,A,]2 [E,G,]2 [E,B,E]2 | z4 [A,E]2 [A,E]2 | F,2 z2 z4 |] %16
V:3
 x8 | x8 | x8 | x8 | x8 | x8 | x8 | x8 | x8 | x8 | x8 | F,3- [F,-G,=E] [F,A,_E]2 z2 | x8 | x8 | %14
 [F,B,D]3 [F,B,D] F,F,F,F, | B,,2- [B,,-G,]2 [B,,F,]2 z2 |] %16
V:4
 x8 | x8 | x8 | x8 | x8 | x8 | x8 | x8 | x8 | x8 | x8 | x8 | x8 | [^Fd]2 [Fc]2 G-[GB] G2 | x8 | %15
 D2 E2 D2 z2 |] %16

